icons/ubuntu-breeze-dark/places/16/folder-games.svg

<svg height="16" width="16" xmlns="http://www.w3.org/2000/svg">
    <style type="text/css" id="current-color-scheme">
    .ColorScheme-Text {
        color:#eff0f1;
    }
    </style>
    <g fill="currentColor" class="ColorScheme-Text">
        <path d="m5 6v1h-1v1h1v1h1v-1h1v-1h-1v-1zm5.5-.1a.6.6 0 0 0 -.6.6.6.6 0 0 0 .6.6.6.6 0 0 0 .6-.6.6.6 0 0 0 -.6-.6zm-1 1a.6.6 0 0 0 -.6.6.6.6 0 0 0 .6.6.6.6 0 0 0 .6-.6.6.6 0 0 0 -.6-.6zm2 0a.6.6 0 0 0 -.6.6.6.6 0 0 0 .6.6.6.6 0 0 0 .6-.6.6.6 0 0 0 -.6-.6zm-1 1a.6.6 0 0 0 -.6.6.6.6 0 0 0 .6.6.6.6 0 0 0 .6-.6.6.6 0 0 0 -.6-.6z"/>
        <path d="m4 4a2 4 0 0 0 -2 4v2.5a1.5 1.5 0 0 0 2.56 1.06l.944-.943a1.5 1.5 0 0 0 .996.383 1.5 1.5 0 0 0 1.5-1.5 1.5 1.5 0 0 0 2.498 1.12l.941.94a1.5 1.5 0 0 0 2.561-1.06v-2.5a2 4 0 0 0 -2-4zm0 1h8a1 3 0 0 1 1 3v2.5a.5.5 0 0 1 -.854.354l-1.853-1.854h-.293v.5a.5.5 0 0 1 -1 0v-.5h-2v.5a.5.5 0 0 1 -1 0v-.5h-.293l-1.853 1.854a.5.5 0 0 1 -.854-.354v-2.5a1 3 0 0 1 1-3z"/>
    </g>
</svg>

<svg xmlns="http://www.w3.org/2000/svg" viewBox="0 0 16 16">
  <defs id="defs3051">
    <style type="text/css" id="current-color-scheme">
      .ColorScheme-Text {
        color:#eff0f1;
      }
      </style>
  </defs>
 <path style="fill:#686868"
       d="M 4 4 A 2 4 0 0 0 2 8 L 2 10.5 A 1.5 1.5 0 0 0 4.6 11.6 L 5.5 10.6 A 1.5 1.5 0 0 0 6.5 11 A 1.5 1.5 0 0 0 8 9.5 A 1.5 1.5 0 0 0 10.5 10.6 L 11.4 11.6 A 1.5 1.5 0 0 0 14 10.5 L 14 8 A 2 4 0 0 0 12 4 L 4 4 z M 4 5 L 12 5 A 1 3 0 0 1 13 8 L 13 10.5 A 0.5 0.5 0 0 1 12.1 10.8 L 10.4 9.1 A 0.6 0.6 0 0 0 10.5 9.1 A 0.6 0.6 0 0 0 11.1 8.5 A 0.6 0.6 0 0 0 10.5 7.9 A 0.6 0.6 0 0 0 9.9 8.5 A 0.6 0.6 0 0 0 10.2 9 L 10 9 L 10 9.5 A 0.5 0.5 0 0 1 9 9.5 L 9 9 L 7 9 L 7 9.5 A 0.5 0.5 0 0 1 6 9.5 L 6 9 L 6 8 L 7 8 L 7 7 L 6 7 L 6 6 L 5 6 L 5 7 L 4 7 L 4 8 L 5 8 L 5 9 L 5.7 9 L 3.8 10.8 A 0.5 0.5 0 0 1 3 10.5 L 3 8 A 1 3 0 0 1 4 5 z M 10.5 5.9 A 0.6 0.6 0 0 0 9.9 6.5 A 0.6 0.6 0 0 0 10.5 7.1 A 0.6 0.6 0 0 0 11.1 6.5 A 0.6 0.6 0 0 0 10.5 5.9 z M 9.5 6.9 A 0.6 0.6 0 0 0 8.9 7.5 A 0.6 0.6 0 0 0 9.5 8.1 A 0.6 0.6 0 0 0 10.1 7.5 A 0.6 0.6 0 0 0 9.5 6.9 z M 11.5 6.9 A 0.6 0.6 0 0 0 10.9 7.5 A 0.6 0.6 0 0 0 11.5 8.1 A 0.6 0.6 0 0 0 12.1 7.5 A 0.6 0.6 0 0 0 11.5 6.9 z "
       class="ColorScheme-Text"
       />
</svg>
